web/themes/custom/pathways/images/icons/src/search.svg

<svg width="52" height="52" viewBox="0 0 52 52" fill="none" xmlns="http://www.w3.org/2000/svg">
<path d="M51.2891 44.9617L41.1633 34.8359C40.7062 34.3789 40.0867 34.125 39.4367 34.125H37.7812C40.5844 30.5398 42.25 26.0305 42.25 21.125C42.25 9.45547 32.7945 0 21.125 0C9.45547 0 0 9.45547 0 21.125C0 32.7945 9.45547 42.25 21.125 42.25C26.0305 42.25 30.5398 40.5844 34.125 37.7812V39.4367C34.125 40.0867 34.3789 40.7062 34.8359 41.1633L44.9617 51.2891C45.9164 52.2438 47.4602 52.2438 48.4047 51.2891L51.2789 48.4148C52.2336 47.4602 52.2336 45.9164 51.2891 44.9617ZM21.125 34.125C13.9445 34.125 8.125 28.3156 8.125 21.125C8.125 13.9445 13.9344 8.125 21.125 8.125C28.3055 8.125 34.125 13.9344 34.125 21.125C34.125 28.3055 28.3156 34.125 21.125 34.125Z" fill="black"/>
</g>
</svg>

<svg width="52" height="52" viewBox="0 0 52 52" fill="none" xmlns="http://www.w3.org/2000/svg"><path d="M51.29 44.962L41.162 34.836a2.436 2.436 0 0 0-1.726-.711H37.78a21.021 21.021 0 0 0 4.469-13C42.25 9.455 32.794 0 21.125 0 9.455 0 0 9.455 0 21.125S9.455 42.25 21.125 42.25c4.905 0 9.415-1.666 13-4.469v1.656c0 .65.254 1.27.71 1.726L44.963 51.29a2.427 2.427 0 0 0 3.443 0l2.874-2.874a2.449 2.449 0 0 0 .01-3.453zM21.124 34.125c-7.18 0-13-5.81-13-13 0-7.18 5.81-13 13-13 7.18 0 13 5.81 13 13 0 7.18-5.81 13-13 13z" fill="#000"/></svg>
